X: 1
T: String Quartet in B\b Major opus 33 no 4 mvt 1
C: Franz Joseph Haydn
%%abc-version 2.0
%%abcx-abcm2ps-target-version 5.9.1 (29 Sep 2008)
%%abc-creator hum2abc beta
%%abcx-conversion-date 2021/02/14 14:38:25
%%abc-copyright Copyright (c) 1994, 2000 Center for Computer Assisted Research in the Humanities
%%abc-edited-by Frances Bennion
%%abcx-initial-encoding-date 1997/04/15
%%gracespace 0 6 6
%%humdrum-veritas 75530763
%%humdrum-veritas-data 4244891307
%%linebreak <none>
%%barnumbers 0
L: 1/8
M: 4/4
N: Derived from op33n4-01.krn
Q: "Allegro moderato"
%%staves [1 2 3 4]
V: 1
V: 2
V: 3 clef=alto
V: 4 clef=bass
K: Bb
[V:1]z4 f4- [I:setbarnb1]|
[V:2]z4 cc cc |
[V:3]z4 AA AA |
[V:4]z4 EE EE |
[V:1]f3/g//a// b/f/e/d/ cB/d/ cB/d/ |
[V:2]B2 z2 AB AB |
[V:3]B2 z2 ED ED |
[V:4]D2 z2 F,B, F,B, |
[V:1]cB z2 c4- |
[V:2]AB z2 GG GG |
[V:3]ED z2 =EE EE |
[V:4]F,B, z2 B,B, B,B, |
[V:1]c>d e/c/A/F/ ED/F/ ED/F/ |
[V:2]F2 z2 CD CD |
[V:3]E2 z2 A,B, A,B, |
[V:4]A,2 z2 F,,B,, F,,B,, |
[V:1]ED z2 BB zc/B//c// |
[V:2]CD z2 DD zA/G//A// |
[V:3]A,B, z2 FF zF |
[V:4]F,,B,, z2 B,B, zF, |
[V:1]dc Bc/B//c// dc z2 |
[V:2]BA BA/G//A// BA z2 |
[V:3]FF FF FF z2 |
[V:4]B,,F, B,F, B,,F, z2 |
[V:1]cc zd/c//d// ed cd/c//d// |
[V:2]AA zB/A//B// cB AB/A//B// |
[V:3]FF zF FF FF |
[V:4]F,F, zB,, F,,B,, F,B,, |
[V:1]ed z2 ff gg |
[V:2]cB z2 Bz Bz |
[V:3]FF z2 B,z Ez |
[V:4]F,,B,, z2 D,z E,z |
[V:1]e2 >d2 cc FF |
[V:2]A2 >B2 GG FF |
[V:3]C2 >B,2 E,E, F,F, |
[V:4]F,2 >G,2 E,E, F,F, |
[V:1]D2 <z2 ff bb |
[V:2]D2 <z2 Bz Bz |
[V:3]D,2 <z2 Dz B,z |
[V:4]D,2 <z2 D,z D,z |
[V:1]a2 g/>f/e/>d/ cc FF |
[V:2]B2 >G2 GG FF |
[V:3]B,2 >=B,2 CC F,F, |
[V:4]E,4 E,E, F,F, |
[V:1]Dz [Fc][cF] [dF]z FF |
[V:2]Dz AA Bz FF |
[V:3]D,z cA Fz F,F, |
[V:4]D,z F,F, B,z F,F, |
[V:1]Dz [ac][ac] [bB]z3 |
[V:2]Dz [Fc][cF] [dF]z3 |
[V:3]D,z EE Dz3 |
[V:4]D,z F,F, B,z F,,F,, |
[V:1]z4 ^f4- |
[V:2]z4 EE EE |
[V:3]z4 CC CC |
[V:4]D,,2 <z2 A,A, A,A, |
[V:1]f/g/a/b/ c'b/a/ g/^f/a/e/ d/c/B/A/ |
[V:2]E8 |
[V:3]C8 |
[V:4]A,8 |
[V:1]G/B/d/g/ bz =E/c/g/a/ bz |
[V:2]DG GG Gc cc |
[V:3]DD DD CG GG |
[V:4]B,B, B,B, =E,E, E,E, |
[V:1]F/c/f/g/ az gg d'd' |
[V:2]cc cc dd ff |
[V:3]AA AA BB GG |
[V:4]F,F, F,F, B,B, =B,B, |
[V:1]f2 =ec' c'4- |
[V:2]d2 cz B4 |
[V:3]G2 >z2 =E/F/^F/G/ ED/C/ |
[V:4]C3 z4 z |
[V:1]c'/_d'/=d'/e'/ =e'/f'/e'/d'/ c'4- |
[V:2]A2 z6 |
[V:3]F2 z2 B4 |
[V:4]z4 =E,/F,/^F,/G,/ E,D,/C,/ |
[V:1]c'/_d'/=d'/e'/ =e'/f'/e'/f'/ d'4- |
[V:2]z3 f >_g=g/_a/ =a/b/a/b/ |
[V:3]A2 z4 zB |
[V:4]F,2 zA, B,B, B,B, |
[V:1]d'/c'/=b/c'/ c'/_b/a/b/ a4- |
[V:2]=e4 fe/f/ _ed/e/ |
[V:3]B2 >G2 F4- |
[V:4]CC CC DD CC |
[V:1]a2 gf =e2 ee |
[V:2]d4 c=B/c/ _BA/B/ |
[V:3]F2 GG G2 GF/G/ |
[V:4]B,A,/B,/ =B,A,/B,/ CC CC |
[V:1]ff ba/b/ aa =ee |
[V:2]AA =EE FF BA/B/ |
[V:3]FF z4 GF/G/ |
[V:4]CC CC CC CC |
[V:1]ff ba/b/ aa d'd' |
[V:2]AA =ee ff ee |
[V:3]FF z4 GG |
[V:4]CC CC CC B,B, |
[V:1]d'4 _d'4 |
[V:2]=e8 |
[V:3]G8 |
[V:4]B,8 |
[V:1]c'=e'/f'/ ^c'/d'/(3^f/g/b/ c2 g2 |
[V:2]fz fz FF =EE |
[V:3]Fz Gz AA G=E |
[V:4]A,z B,z CC C,C, |
[V:1]f2 GG AA BA/B/ |
[V:2]F/C/F/C/ =E/C/E/C/ F/C/F/C/ G/C/G/C/ |
[V:3]F2 z6 |
[V:4]F,2 z6 |
[V:1]AA =ee ff gf/g/ |
[V:2]F/C/F/C/ cc cc cc |
[V:3]z2 B,/G,/B,/G,/ A,/F,/A,/F,/ =E,/C,/E,/C,/ |
[V:4]z8 |
[V:1]aa bb a/f/=e/g/ f/c/d/B/ |
[V:2]cc gg f2 z2 |
[V:3]F,/C,/F,/C,/ CC C2 z2 |
[V:4]z2 =E,,/C,,/E,,/C,,/ F,,G,, A,,B,, |
[V:1]A/c/B/G/ A/F/=E/G/ a/f/=e/g/ f/c/d/B/ |
[V:2]z2 >[=e2B2] [f2A2] z2 |
[V:3]z2 >G,2 F,G, A,B, |
[V:4]C,2 zC, F,,2 z2 |
[V:1]A/c/B/G/ A/F/G/=E/ F/G/A/G/ B/A/c/B/ |
[V:2]z2 >[=e2B2] [A2f2] z2 |
[V:3]C2 zG F2 z2 |
[V:4]z2 >C,2 F,,2 z2 |
[V:1]d/c/e/d/ f/e/g/f/ f4- |
[V:2]z4 _AA AA |
[V:3]z4 DD DD |
[V:4]z4 B,B, B,B, |
[V:1]f/g/f/g/ _a/b/c'/b/ ag/b/ ag/b/ |
[V:2]_A2 z2 de de |
[V:3]D2 z2 FG FG |
[V:4]B,2 z2 B,E B,E |
[V:1]_ag z2 ^f4- |
[V:2]de z2 EE EE |
[V:3]FG z2 CC CC |
[V:4]B,E z2 A,A, A,A, |
[V:1]f/g/a/b/ c'b/a/ g/^f/a/e/ d/c/B/A/ |
[V:2]E8 |
[V:3]C8 |
[V:4]A,8 |
[V:1]G/B/d/g/ bz a/g/a/b/ c'z |
[V:2]DG GG Dd dd |
[V:3]DD DD DA AA |
[V:4]B,B, B,B, ^F,F, F,F, |
[V:1]b/a/b/c'/ d'/b/g/b/ d/g/B/d/ G/B/d/g/ |
[V:2]dz BB dz3 |
[V:3]Bz GG Bz DD |
[V:4]G,z4 z B,B, |
[V:1]a/g/a/b/ c'/a/^f/a/ d/f/A/d/ ^F/A/d/f/ |
[V:2]z2 AA cz3 |
[V:3]A,z ^FF Az CC |
[V:4]^F,z4 z A,A, |
[V:1]g/^f/g/a/ b/g/d/g/ B/d/G/B/ D/G/B/d/ |
[V:2]z2 BB dz3 |
[V:3]B,z GG Bz B,B, |
[V:4]G,z4 z G,G, |
[V:1]g/f/g/_a/ b/g/e/g/ B/e/G/B/ E/G/B/e/ |
[V:2]z2 GG Bz3 |
[V:3]G,z EE Gz G,G, |
[V:4]E,z4 z E,E, |
[V:1]f/=e/f/g/ _a/f/d/f/ =B/d/F/_A/ G/F/E/D/ |
[V:2]z2 FF _Az3 |
[V:3]=B,z DD Fz D,D, |
[V:4]D,z4 z =B,,B,, |
[V:1]e/d/e/f/ g/e/c/e/ G/c/E/G/ C/E/G/c/ |
[V:2]z2 ee gz3 |
[V:3]E,z cc ez E,E, |
[V:4]C,z4 z C,C, |
[V:1]=e/d/e/f/ g/e/c/e/ G/c/=E/G/ C/E/G/c/ |
[V:2]z2 =ee gz3 |
[V:3][G,C,]z cc =ez =EE |
[V:4]B,,z4 z B,,B,, |
[V:1]=e/d/e/f/ g/e/^c/e/ A/c/=E/A/ ^C/E/A/c/ |
[V:2]z2 =ee gz3 |
[V:3]^Cz ^cc =ez =E,E, |
[V:4]A,,z4 z G,,G,, |
[V:1]f/=e/f/g/ a/f/d/f/ A/d/F/A/ D/F/A/d/ |
[V:2]z2 ff az3 |
[V:3]D,z DD Fz F,F, |
[V:4]F,,z4 z D,D, |
[V:1]^f/=e/f/g/ a/f/d/f/ A/d/^F/A/ D/F/A/d/ |
[V:2]z2 ^ff az3 |
[V:3][D,A,]z DD ^Fz [A,^F,][A,F,] |
[V:4]C,z4 z C,C, |
[V:1]g/^f/g/a/ b/g/d/g/ B/d/G/B/ D/G/B/d/ |
[V:2]z2 gg bz3 |
[V:3]G,z BB dz [D,B,][B,D,] |
[V:4]B,,z4 z G,,G,, |
[V:1]D/^F/A/d/ ^f/a/^c'/d'/ dd' dd' |
[V:2][^F2A,2] z2 D/F/A/d/ D/F/A/d/ |
[V:3][A,2D,2] z2 D/^F/A/d/ D/F/A/d/ |
[V:4]D,2 z2 D,/^F,/A,/D/ D,/F,/A,/D/ |
[V:1]d2 z2 B4- |
[V:2]D2 z2 FF FF |
[V:3]D2 z2 DD DD |
[V:4]D,2 z2 _A,A, A,A, |
[V:1]B3/c//d// e/B/_A/G/ FE/G/ FE/G/ |
[V:2]E2 z2 DE DE |
[V:3]E2 z2 _A,G, A,G, |
[V:4]G,2 z2 B,,E, B,,E, |
[V:1]FE z2 g4- |
[V:2]DE z2 =BB BB |
[V:3]_A,G, z2 FF FF |
[V:4]B,,E, z2 DD DD |
[V:1]g/=b/c'/b/ c'/_b/a/g/ f4- |
[V:2]c2 z2 cc cc |
[V:3]G2 z2 AA AA |
[V:4]E2 z2 EE EE |
[V:1]f3/g//a// b/f/e/d/ cB/d/ cB/d/ |
[V:2]B2 z2 AB AB |
[V:3]B2 z2 ED ED |
[V:4]D2 z2 F,B, F,B, |
[V:1]cB z2 c4- |
[V:2]AB z2 GG GG |
[V:3]ED z2 =EE EE |
[V:4]F,B, z2 B,B, B,B, |
[V:1]c>d e/c/A/F/ ED/F/ ED/F/ |
[V:2]F2 z2 CD CD |
[V:3]E2 z2 A,B, A,B, |
[V:4]A,2 z2 F,,B,, F,,B,, |
[V:1]ED z2 BB zc/B//c// |
[V:2]CD z2 DD zA/G//A// |
[V:3]A,B, z2 FF zF |
[V:4]F,,B,, z2 B,B, zF, |
[V:1]dc/B//c// Bc dc z2 |
[V:2]BA/G//A// BA BA z2 |
[V:3]FF FF FF z2 |
[V:4]B,,F, B,F, B,,F, z2 |
[V:1]cc zd/c//d// ed/c//d// cd |
[V:2]AA zB/A//B// cB/A//B// AB |
[V:3]FF zF FF FF |
[V:4]F,F, zB,, F,,B,, F,B,, |
[V:1]ed z2 ff gg |
[V:2]cB z2 Bz Bz |
[V:3]FF z2 B,z Ez |
[V:4]F,,B,, z2 D,z E,z |
[V:1]e2 >d2 cc FF |
[V:2]A2 >B2 GG FF |
[V:3]C2 >B,2 E,E, F,F, |
[V:4]F,2 >G,2 E,E, F,F, |
[V:1]D2 <z2 ff bb |
[V:2]D2 <z2 Bz Bz |
[V:3]D,2 <z2 Dz B,z |
[V:4]D,2 <z2 D,z D,z |
[V:1]a2 g/>f/e/>d/ cc FF |
[V:2]B2 >G2 GG FF |
[V:3]B,2 >=B,2 CC F,F, |
[V:4]E,4 E,E, F,F, |
[V:1]Dz [Fc][cF] [dF]z FF |
[V:2]Dz AA Bz FF |
[V:3]D,z cA Fz F,F, |
[V:4]D,z F,F, B,z F,,F,, |
[V:1]Dz ff _az3 |
[V:2]Dz dd fz dd |
[V:3]D,z7 |
[V:4]D,,z4 z _A,,A,, |
[V:1]b4- b/_c'/=c'/_d'/ =d'/e'/d'/c'/ |
[V:2]d/e/=e/f/ dc/B/ _e2 z2 |
[V:3]_AA Fz4 z |
[V:4]F,,2 <z2 G,,G,, E,,z |
[V:1]b4- b/_c'/=c'/_d'/ =d'/e'/d'/e'/ |
[V:2]d/e/=e/f/ dc/B/ _e2 z2 |
[V:3]_AA Fz4 z |
[V:4]z4 G,,G,, E,,z |
[V:1]e'4 d'/b/e'/c'/ f'/d'/e'/c'/ |
[V:2]A/B/=B/c/ AG/F/ _B4- |
[V:3]C4 D4 |
[V:4]F,8 |
[V:1]b2 >=e2 f4- |
[V:2]B/c/^c/d/ BA/G/ A/B/=B/=c/ AG/F/ |
[V:3]D2 >G2 C2 CC |
[V:4]G,2 >C,2 F,F, E,E, |
[V:1]f/_g/=g/_a/ =a/b/a/g/ f4- |
[V:2]B2 z2 e4 |
[V:3]B,2 z2 A/B/=B/c/ AG/F/ |
[V:4]D,2 z6 |
[V:1]f/_g/=g/_a/ =a/b/a/b/ f4 |
[V:2]d2 z2 e4 |
[V:3]B2 z2 c4 |
[V:4]z4 A,/B,/=B,/C/ A,G,/F,/ |
[V:1]b4 ^f/g/a/b/ a/g/=f/e/ |
[V:2]B4 d/e/f/g/ f/e/d/c/ |
[V:3]F2 >D2 B,2 z2 |
[V:4]D,/E,/=E,/F,/ D,C,/B,,/ _E,E, E,E, |
[V:1]d/e/f/e/ g/f/e/d/ cc zd/c//d// |
[V:2]=B/c/d/c/ e/d/c/_B/ AA zB/A//B// |
[V:3]z6 FF |
[V:4]E,E, E,=E, F,F, z2 |
[V:1]ee zc dd ze |
[V:2]cc zA BB zc |
[V:3]z2 FF z2 FF |
[V:4]F,F, z2 F,F, z2 |
[V:1]ff zd ee zf |
[V:2]dd z=B cc zd |
[V:3]z2 FF z2 FF |
[V:4]F,F, z2 F,F, z2 |
[V:1]gg za bb z=e |
[V:2]ee zc dd zB |
[V:3]z2 FF z2 FF |
[V:4]F,F, z2 F,F, z2 |
[V:1]ff z=e ff ze |
[V:2]AA zB AA zB |
[V:3]z2 FF z2 FF |
[V:4]F,F, z2 F,F, z2 |
[V:1]fz fz f4- |
[V:2]Az Az cc cc |
[V:3]Fz Fz AA AA |
[V:4]F,z F,z EE EE |
[V:1]f3/g//a// b/f/e/d/ cB/d/ cB/d/ |
[V:2]B2 z2 AB AB |
[V:3]B2 z2 ED ED |
[V:4]D2 z2 F,B, F,B, |
[V:1]cB z2 _a4- |
[V:2]AB z2 =BB BB |
[V:3]ED z2 FF FF |
[V:4]F,B, z2 DD DD |
[V:1]a/g/^f/g/ =f/d/e/c/ B2 c2 |
[V:2]c2 z2 DD EE |
[V:3]E2 z2 B,B, A,A, |
[V:4]E2 z2 F,F, F,F, |
[V:1]B2 cc dd ed/e/ |
[V:2]D/F/B,/F/ A,/F/A,/F/ B,/F/B,/F/ C/F/C/F/ |
[V:3]B,2 z6 |
[V:4]B,,2 z6 |
[V:1]dd aa bb c'b/c'/ |
[V:2]B,/F/B,/F/ FF FF FF |
[V:3]z2 E/C/E/C/ D/B,/D/B,/ A,/F,/A,/F,/ |
[V:4]z8 |
[V:1]d'd' e'e' d'/b/a/c'/ b/f/g/e/ |
[V:2]ff ff fz3 |
[V:3]B,/F,/B,/F,/ CC Dz3 |
[V:4]z2 A,,/F,,/A,,/F,,/ B,,C, D,E, |
[V:1]d/f/e/c/ d/B/A/c/ d'/b/a/c'/ b/f/g/e/ |
[V:2]z2 >[c2a2] [b2B2] z2 |
[V:3]z2 >E2 DC DE |
[V:4]F,2 zF, B,,2 z2 |
[V:1]d/f/e/c/ d/B/A/c/ B/F/D/F/ B/A/c/B/ |
[V:2]z2 >[c2a2] [B2b2] z2 |
[V:3]F2 zE D2 z2 |
[V:4]z2 >F,2 B,,2 z2 |
[V:1]d/c/e/d/ f/e/g/f/ f4- |
[V:2]z4 cc cc |
[V:3]z4 AA AA |
[V:4]z4 EE EE |
[V:1]f3/g//a// b/a/g/^f/ gz e'e' |
[V:2]Bz BB Bz gg |
[V:3]B2 zB, Ez CC |
[V:4]D2 zD, E,2 z2 |
[V:1]d'z aa bz FF |
[V:2]fz cc dz FF |
[V:3]Fz EE Dz F,F, |
[V:4]z2 F,F, B,z F,F, |
[V:1]Dz [Fc][cF] [dF]z FF |
[V:2]Dz AA Bz FF |
[V:3]D,z EE Dz F,F, |
[V:4]D,z F,F, B,z F,,F,, |
[V:1]Dz [ca][ca] [b2B2] z2 |]
[V:2]Dz [cF][cF] [d2F2] z2 |]
[V:3]D,z [EC][CE] [B,2D2] z2 |]
[V:4]D,,z F,,F,, B,,2 z2 |]

